X:48
T:Briul Banatean
O:rumania
M:7/8
L:1/8
Q:1/4=136
K:F
V:1
"F" ~c3 d2 e2 |~f3 ef gf |"Bb" ~e3 "Do/h" ~d2 dc |"F/c" ~(c3 "F" c2) BA |
"C" G^F2 G2 A2 |"C7" ~Bd2 c2 B2 |"F" ~A3 "C7" G2 GF |1 "F" F3 C4 :|2
"F" F2 B,/C/D EF G||  |:"F" ~A2 z"C" G2 GF |"F" ~A2 z"C" G2 GF |"F" ~F2 z"Bb" d2 "Do/h" d^c/d/ |
"F\c" (c3 c2) BA |"C" G^F2 G2 A2 |Bd2 c2 B2 |"F" ~A2 F"C" ~G2 GE |
|1 "F" F2 B,/C/D EF G:|2 "F" (F3 F4) |]





